X: 11
T: Come O'er the Stream, Charlie
I: Come O'er the Stream, Charlie	W-7	G	waltz
C: W-7
M: 3/4
Z: Transcribed to abc by Mary Lou Knack
R: waltz
K: G
D2| "G"G3 B d2| d2 B2 e2| d2 B2 g2| d2 B2 A2|       G3 B d2| d2 B2 G2| "D"D2 B2 A2| "G"G4:|
d2| "G"g3 f g2| "C"e2 f2 g2| "A7"e2 a2 g2| "D"f2 e2 d2|    "G"g3 f g2| "C"e2 d2 c2| "G"B2 A2 G2| "D"d4 B2|
    "C"c2 e2 c2| "G"B2 d2 g2| d3 B AG| "D"B2 A2 f2|    "C"g3 f e2| "G"d2 g2 B2| "D"d2 c2 A2| "G"G4|]
% %text 9/1/98 For use only by Roaring Jelly members

#include "LeftHeader.h"
% ---------- page 6 ----------

